X: 158
T: Sellenger's Round
M:6/8
L:1/8
Q:160
S:Playford
O:Manuscript
A:English
K:C
G3 G>AB|c3 c>de|d2 c B>FG| c6|G3 G>AB|c3 c>de|d2 c B>FG|c3 c3:|
|: d|e3 e>dc|d3 d2 d| B>cd d>cB|A3 d2 B| c>dc B2 F| A>Bc B2 F|A2G ^F>EF|G3 G3:|

